public/static/img/assets/convert_sm.svg

<svg width="24" height="23" viewBox="0 0 24 23" fill="none" xmlns="http://www.w3.org/2000/svg">
<ellipse cx="12" cy="11.5" rx="11.5" ry="12" transform="rotate(90 12 11.5)" fill="#00A609"/>
<path d="M10.1777 7.07539C10.2504 7.00273 10.432 7.03906 10.432 7.18438V16.857C10.432 17.075 10.2867 17.2203 10.0688 17.2203H9.70547C9.4875 17.2203 9.34219 17.075 9.34219 16.857V10.3121H7.66875C7.52344 10.3121 7.48711 10.1668 7.55977 10.0578L10.1777 7.07539ZM13.7039 7.03906H14.0672C14.2852 7.03906 14.4305 7.18437 14.4305 7.40234V13.9473H16.1027C16.248 13.9473 16.2844 14.0926 16.2117 14.2016L13.5949 17.184C13.5223 17.2566 13.3406 17.2203 13.3406 17.075V7.40234C13.3406 7.18437 13.4859 7.03906 13.7039 7.03906Z" fill="white"/>
</svg>

<svg width="24" height="23" fill="none" xmlns="http://www.w3.org/2000/svg"><ellipse cx="12" cy="11.5" rx="11.5" ry="12" transform="rotate(90 12 11.5)" fill="#00A609"/><path d="M10.178 7.075c.072-.072.254-.036.254.11v9.672c0 .218-.145.363-.363.363h-.364c-.217 0-.363-.145-.363-.363v-6.545H7.67c-.146 0-.182-.145-.11-.254l2.619-2.983Zm3.526-.036h.363c.218 0 .364.145.364.363v6.545h1.672c.145 0 .181.146.109.255l-2.617 2.982c-.073.073-.254.036-.254-.109V7.402c0-.218.145-.363.363-.363Z" fill="#fff"/></svg>
